X:1
T:la pastorale
T:la pastorale
T:Friedrich Burgmüller
C:Friedrich Burgmüller
%%score { 1 | ( 2 3 ) }
L:1/8
Q:1/4=92
M:6/8
K:G
V:1 treble nm="Piano" snm="Pno."
V:2 bass 
V:3 bass 
V:1
"^Andantino"!p! (!1!G!2!B!3!c !4!d!1!B!3!e | !2!dge dBc) |:!p! (d3 Bd{f}e) | d3!<(! (gdB)!<)! | %4
 A3!>(!{AB} (cAB)!>)! | G3 (GBc) | (d3 Bd{f}e) | d3 (dBg) |"_cresc." f3 (efe) | (d3 d'2) z :| %10
!mf! (a3 ced) | (B3 d^cd) | (a3 ced) | (B3 ded) |!>(! (^c6!>)! | d)!>(!_ee (edc)!>)! | %16
!<(! (Bc!<)!d!>(! fe!>)!c) | (B3 (A)dd) |!p! (d3 Bde) | d3 (gdB) | A3{AB} (cAB) | G3 (GBc) | %22
"_cresc." (d3 Bde) | (d3!<(! Bde)!<)! |!>(! (gdB)!>)! (B2 A) |!p! G3{B} (AEF) | G3{B} (AEF) | %27
"_dim e poco rallentando" GBd gbd' |!pp! g' z z4 |] %29
V:2
 z6 | z6 |: [G,B,D][G,B,D][G,B,D] [G,B,D]3 | [G,B,D][G,B,D][G,B,D] [G,B,D]3 | %4
 [G,CD][G,CD][G,CD] [G,CD]3 | [G,B,D][G,B,D][G,B,D] [G,B,D]3 | [G,B,D][G,B,D][G,B,D] [G,B,D]3 | %7
 [G,B,D][G,B,D][G,B,D] [G,B,D]3 | (A,A)A (GAG) | FAF D2 z :| z DD D3 | z DD D3 | z DD D3 | %13
 z DD D3 | z _BB (BAG) | F6 | G3 [CE]3 | z GG z2 z | [G,B,D][G,B,D][G,B,D] [G,B,D]3 | %19
 [G,B,D][G,B,D][G,B,D] [G,B,D]3 | [G,CD][G,CD][G,CD] [G,CD]3 | [G,B,D][G,B,D][G,B,D] [G,B,D]3 | %22
 [=F,G,B,D][F,G,B,D][F,G,B,D] [F,G,B,D]3 | [E,G,C][E,G,C][E,G,C] [E,G,C]3 | [D,G,B,]3 (D,DC) | %25
 [G,B,][G,B,D][G,B,D] [G,CD]3 | [G,B,D][G,B,D][G,B,D] [G,CD]3 | [G,B,D]2 z [G,B,D]2 z | G,,2 z4 |] %29
V:3
 x6 | x6 |: x6 | x6 | x6 | x6 | x6 | x6 | x6 | x6 :| [F,C]6 | [F,C]6 | [F,C]6 | [F,C]6 | x6 | x6 | %16
 x6 | D3 [DF]2 z | x6 | x6 | x6 | x6 | x6 | x6 | x6 | x6 | x6 | x6 | x6 |] %29

